icon-themes/breeze_svg/sw/res/sidebar/pageproppanel/documentsizeA5_24x24.svg

<svg viewBox="0 0 24 24" xmlns="http://www.w3.org/2000/svg"><path d="m3 4v15h1 16 1v-15zm1 1h16v13h-16zm4.65625 3-2.671875 7h.9980469l.6386719-1.794922h3.1542972l.638671 1.794922h.984376l-2.6679692-7zm4.34375 0v1 2 .5h2.25c.690356 0 1.25.5596 1.25 1.25s-.559644 1.25-1.25 1.25-1.25-.5596-1.25-1.25h-1c0 1.2426 1.007359 2.25 2.25 2.25s2.25-1.0074 2.25-2.25-1.007359-2.25-2.25-2.25h-1.25v-1.5h3.25v-1zm-3.8085938.9335938 1.2890628 3.4824222h-2.574219z" fill="#4d4d4d"/></svg>

<svg xmlns="http://www.w3.org/2000/svg" viewBox="0 0 24 24">
 <path 
     style="fill:#4d4d4d" 
     d="M 3 4 L 3 19 L 4 19 L 20 19 L 21 19 L 21 4 L 3 4 z M 4 5 L 20 5 L 20 18 L 4 18 L 4 5 z M 8.65625 8 L 5.984375 15 L 6.9824219 15 L 7.6210938 13.205078 L 10.775391 13.205078 L 11.414062 15 L 12.398438 15 L 9.7304688 8 L 8.65625 8 z M 13 8 L 13 9 L 13 11 L 13 11.5 L 15.25 11.5 C 15.940356 11.5 16.5 12.0596 16.5 12.75 C 16.5 13.4404 15.940356 14 15.25 14 C 14.559644 14 14 13.4404 14 12.75 L 13 12.75 C 13 13.9926 14.007359 15 15.25 15 C 16.492641 15 17.5 13.9926 17.5 12.75 C 17.5 11.5074 16.492641 10.5 15.25 10.5 L 14 10.5 L 14 9 L 17.25 9 L 17.25 8 L 13 8 z M 9.1914062 8.9335938 L 10.480469 12.416016 L 7.90625 12.416016 L 9.1914062 8.9335938 z "
     />
</svg>
